src/assets/outline/PrinterSlash.svg

<svg width="24" height="24" viewBox="0 0 24 24"  xmlns="http://www.w3.org/2000/svg">
<path d="M16.75 7.75H7.25C6.84 7.75 6.5 7.41 6.5 7V5C6.5 2.44 7.69 1.25 10.25 1.25H13.75C16.31 1.25 17.5 2.44 17.5 5V7C17.5 7.41 17.16 7.75 16.75 7.75ZM8 6.25H16V5C16 3.3 15.45 2.75 13.75 2.75H10.25C8.55 2.75 8 3.3 8 5V6.25Z" />
<path d="M13.0002 22.75H11.0002C8.96021 22.75 7.66021 21.77 7.33021 19.99C7.26021 19.58 7.52021 19.19 7.93021 19.12C8.33021 19.04 8.73021 19.31 8.80021 19.72C8.93021 20.43 9.30021 21.25 10.9902 21.25H12.9902C14.5702 21.25 15.2402 20.58 15.2402 19V15.75H12.9602C12.5502 15.75 12.2102 15.41 12.2102 15C12.2102 14.59 12.5502 14.25 12.9602 14.25H16.0002C16.4102 14.25 16.7502 14.59 16.7502 15V19C16.7502 21.42 15.4202 22.75 13.0002 22.75Z" />
<path d="M6 18.75C3.58 18.75 2.25 17.42 2.25 15V10C2.25 7.58 3.58 6.25 6 6.25H16.59C17 6.25 17.34 6.59 17.34 7C17.34 7.41 17 7.75 16.59 7.75H6C4.42 7.75 3.75 8.42 3.75 10V15C3.75 16.58 4.42 17.25 6 17.25C6.41 17.25 6.75 17.59 6.75 18C6.75 18.41 6.41 18.75 6 18.75Z" />
<path d="M18 18.7498H16C15.59 18.7498 15.25 18.4098 15.25 17.9998V15.7498H13C12.59 15.7498 12.25 15.4098 12.25 14.9998C12.25 14.5898 12.59 14.2498 13 14.2498H16C16.41 14.2498 16.75 14.5898 16.75 14.9998V17.2498H18C19.58 17.2498 20.25 16.5798 20.25 14.9998V9.99983C20.25 9.07983 20.02 8.46983 19.54 8.12983C19.2 7.88983 19.12 7.41983 19.36 7.08983C19.6 6.74983 20.07 6.66983 20.41 6.90983C21.3 7.53983 21.75 8.57983 21.75 9.99983V14.9998C21.75 17.4198 20.42 18.7498 18 18.7498Z" />
<path d="M17 15.75H15.79C15.38 15.75 15.04 15.41 15.04 15C15.04 14.59 15.38 14.25 15.79 14.25H17C17.41 14.25 17.75 14.59 17.75 15C17.75 15.41 17.41 15.75 17 15.75Z" />
<path d="M9 11.75H7C6.59 11.75 6.25 11.41 6.25 11C6.25 10.59 6.59 10.25 7 10.25H9C9.41 10.25 9.75 10.59 9.75 11C9.75 11.41 9.41 11.75 9 11.75Z" />
<path d="M1.99994 22.7504C1.80994 22.7504 1.61994 22.6804 1.46994 22.5304C1.17994 22.2404 1.17994 21.7604 1.46994 21.4704L21.4699 1.47043C21.7599 1.18043 22.2399 1.18043 22.5299 1.47043C22.8199 1.76043 22.8199 2.24043 22.5299 2.53043L2.52994 22.5304C2.37994 22.6804 2.18994 22.7504 1.99994 22.7504Z" />
</svg>

<?xml version="1.0" encoding="UTF-8"?>
<svg width="24" height="24" viewBox="0 0 24 24" xmlns="http://www.w3.org/2000/svg">
 <path d="M16.75 7.75H7.25C6.84 7.75 6.5 7.41 6.5 7V5C6.5 2.44 7.69 1.25 10.25 1.25H13.75C16.31 1.25 17.5 2.44 17.5 5V7C17.5 7.41 17.16 7.75 16.75 7.75ZM8 6.25H16V5C16 3.3 15.45 2.75 13.75 2.75H10.25C8.55 2.75 8 3.3 8 5V6.25Z"/>
 <path d="m13 22.75h-2c-2.04 0-3.34-0.98-3.67-2.76-0.07-0.41 0.19-0.8 0.6-0.87 0.4-0.08 0.8 0.19 0.87 0.6 0.13 0.71 0.5 1.53 2.19 1.53h2c1.58 0 2.25-0.67 2.25-2.25v-3.25h-2.28c-0.41 0-0.75-0.34-0.75-0.75s0.34-0.75 0.75-0.75h3.04c0.41 0 0.75 0.34 0.75 0.75v4c0 2.42-1.33 3.75-3.75 3.75z"/>
 <path d="m6 18.75c-2.42 0-3.75-1.33-3.75-3.75v-5c0-2.42 1.33-3.75 3.75-3.75h10.59c0.41 0 0.75 0.34 0.75 0.75s-0.34 0.75-0.75 0.75h-10.59c-1.58 0-2.25 0.67-2.25 2.25v5c0 1.58 0.67 2.25 2.25 2.25 0.41 0 0.75 0.34 0.75 0.75s-0.34 0.75-0.75 0.75z"/>
 <path d="m18 18.75h-2c-0.41 0-0.75-0.34-0.75-0.75v-2.25h-2.25c-0.41 0-0.75-0.34-0.75-0.75s0.34-0.75 0.75-0.75h3c0.41 0 0.75 0.34 0.75 0.75v2.25h1.25c1.58 0 2.25-0.67 2.25-2.25v-5c0-0.92-0.23-1.53-0.71-1.87-0.34-0.24-0.42-0.71-0.18-1.04 0.24-0.34 0.71-0.42 1.05-0.18 0.89 0.63 1.34 1.67 1.34 3.09v5c0 2.42-1.33 3.75-3.75 3.75z"/>
 <path d="m17 15.75h-1.21c-0.41 0-0.75-0.34-0.75-0.75s0.34-0.75 0.75-0.75h1.21c0.41 0 0.75 0.34 0.75 0.75s-0.34 0.75-0.75 0.75z"/>
 <path d="m9 11.75h-2c-0.41 0-0.75-0.34-0.75-0.75s0.34-0.75 0.75-0.75h2c0.41 0 0.75 0.34 0.75 0.75s-0.34 0.75-0.75 0.75z"/>
 <path d="m1.9999 22.75c-0.19 0-0.38-0.07-0.53-0.22-0.29-0.29-0.29-0.77 0-1.06l20-20c0.29-0.29 0.77-0.29 1.06 0s0.29 0.77 0 1.06l-20 20c-0.15 0.15-0.34 0.22-0.53 0.22z"/>
</svg>
